;FLAVOR:Marlin
;TIME:3751
;Filament used: 0.460599m
;Layer height: 0.04375
;MINX:41.864
;MINY:51.528
;MINZ:0.263
;MAXX:76.022
;MAXY:78.023
;MAXZ:12.143
;Generated with Cura_SteamEngine 4.7.1
M140 S65
M105
M190 S65
M104 S205
M105
M109 S205
M82 ;absolute extrusion mode
G21;(metric values)
G90;(absolute positioning)
M82;(set extruder to absolute mode)
M107;(start with the fan off)
G28;(Home the printer)
G92 E0;(Reset the extruder to 0)
G0 Z5 E5 F500;(Move up and prime the nozzle)
G0 X-1 Z0;(Move outside the printable area)
G1 Y60 E8 F500;(Draw a priming/wiping line to the rear)
G1 X-1;(Move a little closer to the print area)
G1 Y10 E16 F500;(draw more priming/wiping)
G1 E15 F250;(Small retract)
G92 E0;(Zero the extruder)
G92 E0
G92 E0
G1 F2400 E-2.5
;LAYER_COUNT:281
;LAYER:0
M107
G0 F4320 X45.957 Y53.109 Z0.263
;TYPE:SKIRT
G1 F2400 E0
G1 F1800 X46.26 Y52.851 E0.01523
G1 X46.77 Y52.469 E0.03962
G1 X47.323 Y52.155 E0.06395
G1 X48.169 Y51.832 E0.09861
G1 X48.572 Y51.718 E0.11464
G1 X49.194 Y51.583 E0.13899
G1 X49.829 Y51.528 E0.16339
G1 X50.685 Y51.579 E0.1962
G1 X51.021 Y51.628 E0.2092
G1 X51.645 Y51.759 E0.2336
G1 X52.147 Y51.927 E0.25386
G1 X52.358 Y52.01 E0.26254
G1 X52.935 Y52.28 E0.28692
G1 X53.473 Y52.62 E0.31127
G1 X54.023 Y53.08 E0.33871
G1 X54.304 Y53.351 E0.35365
G1 X54.734 Y53.821 E0.37803
G1 X55.004 Y54.203 E0.39593
G1 X55.094 Y54.055 E0.40256
G1 X55.493 Y53.558 E0.42695
G1 X55.957 Y53.109 E0.45166
G1 X56.26 Y52.851 E0.46689
G1 X56.77 Y52.469 E0.49128
G1 X57.323 Y52.155 E0.51562
G1 X58.169 Y51.832 E0.55027
G1 X58.572 Y51.718 E0.5663
G1 X59.194 Y51.583 E0.59066
G1 X59.829 Y51.528 E0.61505
G1 X60.685 Y51.579 E0.64787
G1 X61.021 Y51.628 E0.66086
G1 X61.645 Y51.759 E0.68526
G1 X62.147 Y51.927 E0.70552
G1 X62.358 Y52.01 E0.7142
G1 X62.935 Y52.28 E0.73858
G1 X63.473 Y52.62 E0.76293
G1 X64.023 Y53.08 E0.79037
G1 X64.304 Y53.351 E0.80531
G1 X64.734 Y53.821 E0.82969
G1 X65.101 Y54.341 E0.85405
G1 X65.492 Y55.117 E0.88731
G1 X65.727 Y55.753 E0.91325
G1 X65.871 Y55.604 E0.92118
G1 X66.318 Y55.238 E0.94329
G1 X66.604 Y55.03 E0.95683
G1 X67.142 Y54.688 E0.98122
G1 X67.718 Y54.417 E1.00558
G1 X68.262 Y54.235 E1.02754
G1 X68.598 Y54.144 E1.04086
G1 X69.222 Y54.017 E1.06523
G1 X69.857 Y53.968 E1.0896
G1 X70.495 Y54 E1.11405
G1 X70.849 Y54.04 E1.12768
G1 X71.476 Y54.151 E1.15205
G1 X72.084 Y54.34 E1.17642
G1 X72.6 Y54.57 E1.19804
G1 X72.913 Y54.731 E1.21151
G1 X73.46 Y55.057 E1.23588
G1 X73.962 Y55.45 E1.26028
G1 X74.397 Y55.886 E1.28385
G1 X74.63 Y56.15 E1.29732
G1 X75.021 Y56.653 E1.3217
G1 X75.345 Y57.201 E1.34607
G1 X75.586 Y57.75 E1.36901
G1 X75.709 Y58.083 E1.3826
G1 X75.891 Y58.693 E1.40696
G1 X75.996 Y59.321 E1.43133
G1 X76.022 Y59.928 E1.45458
G1 X76.016 Y60.277 E1.46794
G1 X75.965 Y60.912 E1.49232
G1 X75.835 Y61.536 E1.51671
G1 X75.644 Y62.099 E1.53946
G1 X75.51 Y62.429 E1.55309
G1 X75.234 Y63.003 E1.57747
G1 X74.888 Y63.538 E1.60185
G1 X74.496 Y64.007 E1.62524
G1 X74.253 Y64.264 E1.63878
G1 X73.787 Y64.698 E1.66315
G1 X73.27 Y65.071 E1.68755
G1 X72.736 Y65.364 E1.71086
G1 X72.419 Y65.514 E1.72428
G1 X71.827 Y65.75 E1.74867
G1 X71.211 Y65.91 E1.77302
G1 X70.634 Y65.987 E1.7953
G1 X70.28 Y66.014 E1.80889
G1 X69.643 Y66.023 E1.83327
G1 X69.01 Y65.951 E1.85765
G1 X68.394 Y65.802 E1.8819
G1 X68.141 Y65.724 E1.89204
G1 X68.141 Y65.982 E1.90191
G1 X68.849 Y66.04 E1.92909
G1 X69.476 Y66.151 E1.95346
G1 X70.084 Y66.34 E1.97783
G1 X70.6 Y66.57 E1.99945
G1 X70.913 Y66.731 E2.01292
G1 X71.46 Y67.057 E2.03729
G1 X71.962 Y67.45 E2.06169
G1 X72.397 Y67.886 E2.08526
G1 X72.63 Y68.15 E2.09873
G1 X73.021 Y68.653 E2.12312
G1 X73.345 Y69.201 E2.14748
G1 X73.586 Y69.75 E2.17042
G1 X73.709 Y70.083 E2.18401
G1 X73.891 Y70.693 E2.20837
G1 X73.996 Y71.321 E2.23274
G1 X74.022 Y71.928 E2.25599
G1 X74.016 Y72.277 E2.26935
G1 X73.965 Y72.912 E2.29373
G1 X73.835 Y73.536 E2.31812
G1 X73.644 Y74.099 E2.34087
G1 X73.51 Y74.429 E2.3545
G1 X73.234 Y75.003 E2.37888
G1 X72.888 Y75.538 E2.40326
G1 X72.496 Y76.007 E2.42665
G1 X72.253 Y76.264 E2.44019
G1 X71.787 Y76.698 E2.46456
G1 X71.27 Y77.071 E2.48896
G1 X70.736 Y77.364 E2.51227
G1 X70.419 Y77.514 E2.52569
G1 X69.827 Y77.75 E2.55008
G1 X69.211 Y77.91 E2.57443
G1 X68.634 Y77.987 E2.59671
G1 X68.28 Y78.014 E2.6103
G1 X67.643 Y78.023 E2.63468
G1 X67.01 Y77.951 E2.65906
G1 X66.394 Y77.802 E2.68331
G1 X66.061 Y77.699 E2.69665
G1 X65.466 Y77.473 E2.72101
G1 X64.904 Y77.175 E2.74536
G1 X64.443 Y76.855 E2.76683
G1 X64.163 Y76.637 E2.78041
G1 X63.686 Y76.215 E2.80479
G1 X63.266 Y75.737 E2.82914
G1 X62.931 Y75.246 E2.85188
G1 X62.752 Y74.948 E2.86519
G1 X62.458 Y74.383 E2.88956
G1 X62.239 Y73.785 E2.91393
G1 X62.095 Y73.165 E2.93829
G1 X62.037 Y72.815 E2.95187
G1 X61.973 Y72.181 E2.97626
G1 X61.975 Y72.102 E2.97928
G1 X57.483 Y72.102 E3.15119
G1 X56.847 Y72.062 E3.17558
G1 X56.222 Y71.943 E3.19993
G1 X55.616 Y71.746 E3.22431
G1 X55.04 Y71.475 E3.24867
G1 X54.998 Y71.448 E3.25058
G1 X54.536 Y71.684 E3.27044
G1 X53.937 Y71.9 E3.29481
G1 X53.315 Y72.039 E3.3192
G1 X52.519 Y72.102 E3.34976
G1 X47.483 Y72.102 E3.54248
G1 X46.847 Y72.062 E3.56687
G1 X46.222 Y71.943 E3.59122
G1 X45.616 Y71.746 E3.61561
G1 X45.04 Y71.475 E3.63997
G1 X44.502 Y71.134 E3.66434
G1 X43.894 Y70.616 E3.69491
G1 X43.347 Y70.069 E3.72452
G1 X42.926 Y69.591 E3.74889
G1 X42.568 Y69.064 E3.77328
G1 X42.279 Y68.497 E3.79763
G1 X42.063 Y67.898 E3.822
G1 X41.924 Y67.276 E3.84639
G1 X41.864 Y66.642 E3.87076
G1 X41.866 Y66.25 E3.88576
G1 X41.904 Y65.413 E3.91783
G1 X41.973 Y64.78 E3.9422
G1 X42.12 Y64.16 E3.96658
G1 X42.344 Y63.564 E3.99095
G1 X42.587 Y63.103 E4.01089
G1 X42.616 Y62.637 E4.02876
G1 X42.735 Y62.012 E4.05311
G1 X42.932 Y61.406 E4.07749
G1 X43.203 Y60.83 E4.10186
G1 X43.544 Y60.292 E4.12623
G1 X43.95 Y59.801 E4.15062
G1 X44.288 Y59.484 E4.16835
G1 X44.114 Y58.922 E4.19086
G1 X44.004 Y58.295 E4.21523
G1 X43.972 Y57.659 E4.2396
G1 X44.045 Y56.754 E4.27434
G1 X44.148 Y56.125 E4.29874
G1 X44.329 Y55.515 E4.32309
G1 X44.609 Y54.887 E4.3494
G1 X44.762 Y54.598 E4.36191
G1 X45.094 Y54.055 E4.38627
G1 X45.463 Y53.596 E4.40881
G0 F1620 X45.493 Y53.558
G0 X45.957 Y53.109
G0 F4320 X46.184 Y53.375
G1 F1800 X46.487 Y53.117 E4.42404
G1 X46.98 Y52.75 E4.44756
G1 X47.516 Y52.45 E4.47107
G1 X48.264 Y52.168 E4.50166
G1 X48.667 Y52.054 E4.51769
G1 X49.268 Y51.926 E4.5412
G1 X49.88 Y51.877 E4.5647
G1 X50.635 Y51.925 E4.59365
G1 X50.971 Y51.974 E4.60665
G1 X51.572 Y52.102 E4.63016
G1 X52.23 Y52.336 E4.65689
G1 X52.786 Y52.598 E4.68041
G1 X53.303 Y52.929 E4.70391
G1 X53.78 Y53.332 E4.7278
G1 X54.061 Y53.603 E4.74274
G1 X54.475 Y54.057 E4.76626
G1 X54.826 Y54.562 E4.78979
G1 X54.996 Y54.904 E4.80441
G1 X55.071 Y54.762 E4.81056
G1 X55.393 Y54.239 E4.83406
G1 X55.781 Y53.762 E4.85759
G1 X56.184 Y53.375 E4.87897
G1 X56.487 Y53.117 E4.8942
G1 X56.98 Y52.75 E4.91772
G1 X57.516 Y52.45 E4.94123
G1 X58.264 Y52.168 E4.97182
G1 X58.667 Y52.054 E4.98785
G1 X59.268 Y51.926 E5.01137
G1 X59.88 Y51.877 E5.03486
G1 X60.635 Y51.925 E5.06382
G1 X60.971 Y51.974 E5.07681
G1 X61.572 Y52.102 E5.10033
G1 X62.23 Y52.336 E5.12705
G1 X62.786 Y52.598 E5.15058
G1 X63.303 Y52.929 E5.17407
G1 X63.78 Y53.332 E5.19797
G1 X64.061 Y53.603 E5.21291
G1 X64.475 Y54.057 E5.23642
G1 X64.826 Y54.562 E5.25996
G1 X65.167 Y55.247 E5.28924
G1 X65.312 Y55.609 E5.30416
G1 X65.503 Y56.193 E5.32768
G1 X65.553 Y56.485 E5.33902
G1 X65.711 Y56.273 E5.34914
G1 X66.139 Y55.833 E5.37263
G1 X66.81 Y55.313 E5.40511
G1 X67.329 Y54.984 E5.42863
G1 X67.887 Y54.726 E5.45216
G1 X68.69 Y54.482 E5.48428
G1 X69.292 Y54.361 E5.50777
G1 X69.905 Y54.318 E5.53129
G1 X70.456 Y54.348 E5.55241
G1 X70.81 Y54.388 E5.56604
G1 X71.414 Y54.496 E5.58953
G1 X72 Y54.683 E5.61307
G1 X72.753 Y55.042 E5.64499
G1 X73.28 Y55.358 E5.66851
G1 X73.762 Y55.74 E5.69204
G1 X74.135 Y56.117 E5.71234
G1 X74.368 Y56.381 E5.72581
G1 X74.743 Y56.868 E5.74934
G1 X75.053 Y57.398 E5.77283
G1 X75.257 Y57.871 E5.79255
G1 X75.38 Y58.204 E5.80613
G1 X75.555 Y58.793 E5.82965
G1 X75.652 Y59.4 E5.85317
G1 X75.672 Y59.922 E5.87316
G1 X75.666 Y60.271 E5.88652
G1 X75.616 Y60.884 E5.91006
G1 X75.486 Y61.484 E5.93356
G1 X75.32 Y61.968 E5.95314
G1 X75.186 Y62.298 E5.96677
G1 X74.918 Y62.851 E5.99029
G1 X74.581 Y63.364 E6.01377
G1 X74.241 Y63.766 E6.03392
G1 X73.998 Y64.023 E6.04746
G1 X73.548 Y64.441 E6.07096
G1 X73.047 Y64.797 E6.09449
G1 X72.586 Y65.048 E6.11457
G1 X72.269 Y65.198 E6.12799
G1 X71.698 Y65.424 E6.1515
G1 X71.102 Y65.574 E6.17502
G1 X70.253 Y65.665 E6.20769
G1 X69.639 Y65.672 E6.23119
G1 X69.029 Y65.599 E6.2547
G1 X68.498 Y65.468 E6.27563
G1 X67.766 Y65.213 E6.3053
G1 X67.791 Y65.68 E6.3232
G1 X67.791 Y66.326 E6.34792
G1 X67.905 Y66.318 E6.35229
G1 X68.456 Y66.348 E6.37341
G1 X68.81 Y66.388 E6.38704
G1 X69.414 Y66.496 E6.41053
G1 X70 Y66.683 E6.43407
G1 X70.753 Y67.042 E6.46599
G1 X71.28 Y67.358 E6.48951
G1 X71.762 Y67.74 E6.51304
G1 X72.135 Y68.117 E6.53334
G1 X72.368 Y68.381 E6.54682
G1 X72.743 Y68.868 E6.57034
G1 X73.053 Y69.398 E6.59384
G1 X73.257 Y69.871 E6.61355
G1 X73.38 Y70.204 E6.62714
G1 X73.555 Y70.793 E6.65065
G1 X73.652 Y71.4 E6.67417
G1 X73.672 Y71.922 E6.69417
G1 X73.666 Y72.271 E6.70752
G1 X73.616 Y72.884 E6.73106
G1 X73.486 Y73.484 E6.75456
G1 X73.32 Y73.968 E6.77414
G1 X73.186 Y74.298 E6.78777
G1 X72.918 Y74.851 E6.81129
G1 X72.581 Y75.364 E6.83478
G1 X72.241 Y75.766 E6.85493
G1 X71.998 Y76.023 E6.86846
G1 X71.548 Y76.441 E6.89197
G1 X71.047 Y76.797 E6.91549
G1 X70.586 Y77.048 E6.93557
G1 X70.269 Y77.198 E6.949
G1 X69.698 Y77.424 E6.9725
G1 X69.102 Y77.574 E6.99602
G1 X68.253 Y77.665 E7.0287
G1 X67.639 Y77.672 E7.05219
G1 X67.029 Y77.599 E7.07571
G1 X66.498 Y77.468 E7.09664
G1 X66.165 Y77.365 E7.10998
G1 X65.591 Y77.146 E7.13349
G1 X65.05 Y76.854 E7.15701
G1 X64.378 Y76.361 E7.18891
G1 X63.919 Y75.953 E7.21241
G1 X63.517 Y75.489 E7.23591
G1 X63.231 Y75.066 E7.25545
G1 X63.052 Y74.768 E7.26875
G1 X62.77 Y74.222 E7.29227
G1 X62.562 Y73.644 E7.31578
G1 X62.441 Y73.107 E7.33685
G1 X62.383 Y72.757 E7.35042
G1 X62.322 Y72.146 E7.37392
G1 X62.334 Y71.752 E7.38901
G1 X57.483 Y71.752 E7.57465
G1 X56.87 Y71.712 E7.59816
G1 X56.267 Y71.593 E7.62169
G1 X55.685 Y71.396 E7.6452
G1 X55.133 Y71.126 E7.66872
G1 X55.002 Y71.039 E7.67473
G1 X54.888 Y71.115 E7.67998
G1 X54.337 Y71.388 E7.70351
G1 X53.756 Y71.587 E7.72701
G1 X53.153 Y71.709 E7.75056
G1 X52.519 Y71.752 E7.77488
G1 X47.483 Y71.752 E7.9676
G1 X46.87 Y71.712 E7.99111
G1 X46.267 Y71.593 E8.01464
G1 X45.685 Y71.396 E8.03815
G1 X45.133 Y71.126 E8.06167
G1 X44.621 Y70.786 E8.08519
G1 X44.142 Y70.368 E8.10952
G1 X43.595 Y69.821 E8.13912
G1 X43.19 Y69.359 E8.16264
G1 X42.848 Y68.849 E8.18614
G1 X42.575 Y68.298 E8.20967
G1 X42.376 Y67.717 E8.23317
G1 X42.254 Y67.114 E8.25672
G1 X42.216 Y66.266 E8.2892
G1 X42.254 Y65.429 E8.32127
G1 X42.322 Y64.818 E8.34479
G1 X42.468 Y64.221 E8.36831
G1 X42.691 Y63.648 E8.39184
G1 X42.93 Y63.211 E8.41091
G1 X42.966 Y62.66 E8.43204
G1 X43.085 Y62.057 E8.45556
G1 X43.282 Y61.475 E8.47907
G1 X43.552 Y60.923 E8.50259
G1 X43.892 Y60.411 E8.52611
G1 X44.295 Y59.947 E8.54963
G1 X44.71 Y59.58 E8.57083
G1 X44.607 Y59.345 E8.58065
G1 X44.435 Y58.755 E8.60417
G1 X44.341 Y58.148 E8.62768
G1 X44.346 Y57.256 E8.66182
G1 X44.393 Y56.789 E8.67978
G1 X44.494 Y56.183 E8.70329
G1 X44.673 Y55.595 E8.72681
G1 X44.918 Y55.051 E8.74964
G1 X45.071 Y54.762 E8.76216
G1 X45.393 Y54.239 E8.78566
G1 X45.696 Y53.867 E8.80402
G0 F1620 X45.781 Y53.762
G0 X46.184 Y53.375
G0 F4320 X46.714 Y53.384
G1 F1800 X47.189 Y53.032 E8.82665
G1 X47.707 Y52.747 E8.84928
G1 X48.359 Y52.505 E8.87589
G1 X48.762 Y52.391 E8.89192
G1 X49.341 Y52.269 E8.91456
G1 X49.93 Y52.226 E8.93717
G1 X50.584 Y52.272 E8.96226
G1 X50.92 Y52.321 E8.97525
G1 X51.498 Y52.445 E8.99787
G1 X52.102 Y52.662 E9.02244
G1 X52.636 Y52.915 E9.04505
G1 X53.131 Y53.238 E9.06767
G1 X53.537 Y53.584 E9.08808
G1 X53.818 Y53.855 E9.10302
G1 X54.215 Y54.293 E9.12565
G1 X54.549 Y54.781 E9.14828
G1 X54.842 Y55.377 E9.17369
G1 X54.992 Y55.754 E9.18922
G1 X55.016 Y55.677 E9.19231
G1 X55.227 Y55.215 E9.21175
G1 X55.38 Y54.926 E9.22426
G1 X55.692 Y54.423 E9.24691
G1 X56.068 Y53.967 E9.26953
G1 X56.714 Y53.384 E9.30283
G1 X57.189 Y53.032 E9.32546
G1 X57.707 Y52.747 E9.34808
G1 X58.359 Y52.505 E9.3747
G1 X58.762 Y52.391 E9.39073
G1 X59.341 Y52.269 E9.41337
G1 X59.93 Y52.226 E9.43597
G1 X60.584 Y52.272 E9.46106
G1 X60.92 Y52.321 E9.47406
G1 X61.498 Y52.445 E9.49668
G1 X62.102 Y52.662 E9.52124
G1 X62.636 Y52.915 E9.54386
G1 X63.131 Y53.238 E9.56648
G1 X63.537 Y53.584 E9.58689
G1 X63.818 Y53.855 E9.60183
G1 X64.215 Y54.293 E9.62446
G1 X64.549 Y54.781 E9.64709
G1 X64.842 Y55.377 E9.6725
G1 X64.987 Y55.739 E9.68743
G1 X65.17 Y56.302 E9.71008
G1 X65.285 Y56.994 E9.73693
G1 X65.318 Y57.471 E9.75523
G1 X65.636 Y56.956 E9.77839
G1 X65.991 Y56.483 E9.80102
G1 X66.407 Y56.063 E9.82365
G1 X67.016 Y55.596 E9.85302
G1 X67.516 Y55.281 E9.87563
G1 X68.055 Y55.037 E9.89827
G1 X68.781 Y54.82 E9.92727
G1 X69.361 Y54.704 E9.94991
G1 X69.951 Y54.668 E9.97253
G1 X70.77 Y54.736 E10.00398
G1 X71.352 Y54.842 E10.02662
G1 X71.914 Y55.025 E10.04924
G1 X72.593 Y55.354 E10.07811
G1 X73.099 Y55.659 E10.10073
G1 X73.56 Y56.03 E10.12337
G1 X74.105 Y56.613 E10.15391
G1 X74.466 Y57.082 E10.17656
G1 X74.759 Y57.595 E10.19917
G1 X75.052 Y58.325 E10.22928
G1 X75.219 Y58.892 E10.2519
G1 X75.308 Y59.477 E10.27454
G1 X75.316 Y60.265 E10.3047
G1 X75.266 Y60.854 E10.32732
G1 X75.137 Y61.431 E10.34995
G1 X74.862 Y62.166 E10.37998
G1 X74.603 Y62.698 E10.40263
G1 X74.274 Y63.189 E10.42524
G1 X73.744 Y63.783 E10.45571
G1 X73.31 Y64.184 E10.47832
G1 X72.825 Y64.523 E10.50097
G1 X72.119 Y64.882 E10.53128
G1 X71.569 Y65.098 E10.55389
G1 X70.994 Y65.238 E10.57654
G1 X70.227 Y65.316 E10.60605
G1 X69.635 Y65.321 E10.6287
G1 X69.049 Y65.247 E10.65131
G1 X68.268 Y65.031 E10.68232
G1 X67.716 Y64.818 E10.70496
G1 X67.292 Y64.585 E10.72348
G1 X67.353 Y64.807 E10.73229
G1 X67.441 Y65.68 E10.76587
G1 X67.441 Y66.48 E10.79648
G1 X67.426 Y66.7 E10.80492
G1 X67.951 Y66.668 E10.82505
G1 X68.77 Y66.736 E10.8565
G1 X69.352 Y66.842 E10.87914
G1 X69.914 Y67.025 E10.90176
G1 X70.593 Y67.354 E10.93064
G1 X71.099 Y67.659 E10.95325
G1 X71.56 Y68.03 E10.97589
G1 X72.105 Y68.613 E11.00643
G1 X72.466 Y69.082 E11.02908
G1 X72.759 Y69.595 E11.05169
G1 X73.052 Y70.325 E11.0818
G1 X73.219 Y70.892 E11.10442
G1 X73.308 Y71.477 E11.12706
G1 X73.316 Y72.265 E11.15722
G1 X73.266 Y72.854 E11.17984
G1 X73.137 Y73.431 E11.20247
G1 X72.862 Y74.166 E11.2325
G1 X72.603 Y74.698 E11.25515
G1 X72.274 Y75.189 E11.27777
G1 X71.744 Y75.783 E11.30823
G1 X71.31 Y76.184 E11.33084
G1 X70.825 Y76.523 E11.35349
G1 X70.119 Y76.882 E11.3838
G1 X69.569 Y77.098 E11.40641
G1 X68.994 Y77.238 E11.42906
G1 X68.227 Y77.316 E11.45857
G1 X67.635 Y77.321 E11.48122
G1 X67.049 Y77.247 E11.50383
G1 X66.268 Y77.031 E11.53484
G1 X65.716 Y76.818 E11.55748
G1 X65.198 Y76.533 E11.58011
G1 X64.593 Y76.085 E11.60892
G1 X64.152 Y75.691 E11.63155
G1 X63.769 Y75.241 E11.65416
G1 X63.352 Y74.588 E11.68382
G1 X63.082 Y74.061 E11.70648
G1 X62.886 Y73.504 E11.72907
G1 X62.728 Y72.7 E11.76043
G1 X62.671 Y72.112 E11.78304
G1 X62.694 Y71.521 E11.80567
G1 X62.713 Y71.391 E11.8107
G1 X62.519 Y71.402 E11.81814
G1 X57.483 Y71.402 E12.01087
G1 X56.893 Y71.362 E12.0335
G1 X56.314 Y71.243 E12.05612
G1 X55.756 Y71.047 E12.07875
G1 X55.23 Y70.777 E12.10138
G1 X55.002 Y70.618 E12.11202
G1 X54.673 Y70.835 E12.1271
G1 X54.14 Y71.09 E12.14971
G1 X53.578 Y71.272 E12.17232
G1 X52.996 Y71.376 E12.19495
G1 X52.519 Y71.402 E12.21323
G1 X47.483 Y71.402 E12.40596
G1 X46.893 Y71.362 E12.42859
G1 X46.314 Y71.243 E12.45121
